X:1
T:James Gibb editions
T:Upraised from sleep, to Thee we kneel - Barnby
%%score [ ( 1 2 ) ( 3 4 ) ]
L:1/8
Q:1/4=66
M:4/4
K:Eb
V:1 treble nm="Midi_74"
V:2 treble 
V:3 bass nm="Midi_74"
V:4 bass 
V:1
"^Robert C. Singleton\n(1810-81)""^Upraised from sleep, to Thee we kneel""^Joseph Barnby\n(1838-96)""^84. 88. 447"!p! G2 | %1
"^cresc." E2 F2 G2 A2 | B2 F2 G2 || B2 | e4 c4 | d6 ||!f! c2 | B3 c B2 A2 | G3 A G2 ||[M:4/4] F2 | %10
 E2- G2 d2 c2 | B4"^dim." c4 | B6 ||!p! G2 | E2 A2 F2"^1" G2 | E2 A2 G2 ||!<(! F2 | %17
!>(! B2!<)! G2!>)! F2 E2 |"^1"!pp! (E4 D4) | E6 || A4 G4 |] %21
V:2
 E2 | E2 E2 E2 E2 | E2 D2 E2 || F2 | G4 F4 | F6 || F2 | B,2 E2 C2 D2 | B,2 C2 =B,2 ||[M:4/4] =B,2 | %10
 C2 E2 F2 G2 | F4 E4 | D6 || D2 | E2 F2 D2 D2 | E2 F2 D2 || D2 | E2 D2 C2 C2 | B,8 | B,6 || %20
 E4 E4 |] %21
V:3
 B,2 | G,2 A,2 B,2 A,2 | G,2 B,2 B,2 || B,2 | (B,2 G,2) =A,4 | B,6 || D2 | E2 G,2 F,2 F,2 | %8
 E,2 E,2 F,2 ||[M:4/4] G,2 | G,2"B""^1" E2 =B,2 C2 | %11
 D4"^1 Upraised from sleep, to Thee we kneel,\nAs day doth break;\nTo Thee, O Lord, aloud we sing,\nTo Thee the song of angels bring;\nFor mercy’s sake,\nOh, pity take,\nO Holy, Holy, Holy.\n\n2 Thou, Lord, hast from my couch of rest\nUplifted me;\nOh, light my mind; oh, light my heart,\nAnd ope my lips to take their part\nIn praising Thee,\nBlest Trinity,\nO Holy, Holy, Holy." =A,4 | %12
 B,6 ||"^rit."!p! B,2 | G,2 C2 B,2 B,2 | G,2"^1" A,2 B,2 || B,2 | B,2 B,2 A,2 G,2 | (F,4 A,4) | %19
 G,6 || C4 B,4 |] %21
V:4
 E,2 | E,2 E,2 E,2 C,2 | B,,2 B,,2 E,2 || D,2 | C,4 F,4 | B,,6 || !courtesy!_A,2 | %7
 G,2 E,2 F,2 B,,2 | E,2 C,2 D,2 ||[M:4/4] G,,2 | C,2 C,2 D,2 E,2 | F,4 F,4 | B,,6 || B,,2 | %14
 C,2 A,,2 B,,2 G,,2 | C,2 F,,2 B,,2 || A,,2 | G,,2 G,,2 A,,2 A,,2 | B,,8 | E,6 || A,,4 E,4 |] %21

